X:3122
T:Clumsy Lover, The
C:Neil Dickie
R:reel
H:Usually played in Amix, sometimes in Dmix. Also as a jig #211.
H:Version 2 from irtrad-l, posted by Keith Elliot.
H:Version 3 from irtrad-l, posted by Caroline Foty.
Z:id:hn-reel-312
M:C|
K:Amix
ce~e2 fece|df~f2 gfed|ce~e2 fece|dBBA ~B3d|
ce~e2 fedc|df~f2 gfed|ceec dfed|cAAG A2AB:|
|:c2ec acec|d2fd adfd|c2ec acec|d2Bc dedB|
c2ac acac|d2ad adad|ceec dfed|cAAG A2AB:|
